!!!OTL@@FUR: V&ecirc;s d&ocirc;i che son d&ocirc; stelis
!!!OTL@IT: Avete due occhi che sono due stelle
!!!OTL@EN: Your eyes are like stars
**kern
*clefG2
*k[f#]
*G:
*M3/4
*MM60
*>[A]
=1
*>A
2dd
4dd
=2
2dd
4dd
=3
4dd
4cc
4b
=4
2dd
4a
=5
2ff#
4ff#
=6
2ff#
4ee
=7
2ff#
4ee
=8
2dd
4b
=9
2dd
4dd
=10
2dd
4dd
=11
4dd
4cc
4b
=12
2dd
4a
=13
2ff#
4ff#
=14
2ff#
4ff#
=15
4dd
4ee
4cc
=16
2.b
==
*-
!!!ARE: Friuli
!!!ENC: Kelly Leistikow
!!!END: 2002/03/07
!!!ref: @{OTL@@FUR}/@{OTL@EN}
